X:293
T: JETZT SCHWINGEN WIR DEN HUT
N: B0345
O: Europa, Mitteleuropa, Deutschland
R: Trink - Lied, Moral
M: 2/4
L: 1/16
K: C
G,2 | C2G,2A,2G,2 | G,4z2
C2 | B,2C2D2B,2 | C4z2
CD | E2E2E2FE | D2D2D2
ED | C2C2C2DC | B,2B,2B,2
CB, | A,2G,2A,2G,2 | A,2B,2C2
D2 | E4D4 | C4z2

